X:6
T:Irish Set
C:Traditional
M:4/4
L:1/8
Q:1/4=56
K:D
T:Minstrel Boy
e4
|: {/AGAG}A3B1 {/Gdc}d1c1 {/gBd}B1{/e}A1|{/gcd}c2e2{/ag}a2g1a1|{/fg}f2{/g}e2{/g}c2{/GdG}e1c1 |1 {/gBd}B4{/G}A3 e1 :|2  {/gBd}B4{/G}A2 |!
{/gcd}c1e1 |{/ag}a2{/f}g2{/a}f2{/gf}g1a1|{/f}g2f2{/gef}e3{/A}e1|{/g}f3c1{/GdG}c3e1|{/g}f2{/GdG}f1g1a2{/g}a2|!
{/AGAG}A3B1 {/Gdc}d1c1 {/gBd}B1{/e}A1|{/gcd}c2e2{/ag}a2g1a1|{/fg}f2{/g}e2{/g}c2{/GdG}e1c1|{/gBd}B4{/G}A2|]!
T:Wearing of the Green
|:{/g}A3/2B/2|{/GdG}c2 {/gcd}c1{/e}B1 {/gcd}c1e1 {/A}e1c1 | {/gcd}c1{/e}B1 {/gBd}B1{/e}A1{/gBd}B2{/gcd}c1e1|{/gfg}f1d1 {/ag}a3/2g/2 {/fg}f1e1 {/gcd}c1{/e}A1|{/gBd}B1{/e}A1 {/GAG}A3/2B/2{/G}A2:|!
a3/2g/2|
{/fg}f1e1 {/A}e1c1 {/gef}e1c1 {/g}A3/2B/2|{/gcd}c1{/e}B1 {/gcd}c1d1{/gcd}c2{/ag}a3/2g/2|{/fg}f1e1 {/A}e1c1 {/gef}e1c1 {/g}A3/2B/2|{/gcd}c1{/e}B1 {/gBd}B3/2c/2{/gBd}B2{/g}A3/2B/2|!
{/GdG}c2 {/gcd}c1{/e}B1 {/gcd}c1e1 {/A}e1c1|{/gcd}c1{/e}B1 {/gBd}B1{/e}A1{/gBd}B2{/gcd}c1e1|{/gfg}f1d1 {/ag}a3/2g/2 {/fg}f1e1 {/gcd}c1{/e}A1|{/gBd}B1{/e}A1 {/GAG}A3/2B/2 {/G}A3|]!
T:Twenty Men from Dublin
|: e1| \
{/g}A3{/d}B1{/G}A2{/Gdc}d2|{/gfg}f3{/g}e1{/Gdc}d4|{/gBd}B3c1 {/gef}e1d1 {/gcd}c1{/e}B1|{/G}A4{/GAG}A4|!
{/g}A3{/d}B1{/G}A2{/Gdc}d2|{/gfg}f3{/g}e1{/Gdc}d4|{/gef}e3f1 {/gf}g1e1 {/gcd}c1{/e}A1|{/Gdc}d4{/gdG}d4||!
{/gf}g2{/a}f2{/gef}e2{/AGAG}A2|{/gfg}f3{/g}e1{/Gdc}d4|{/gBd}B3c1 {/gef}e1d1 {/gcd}c1{/e}B1|{/G}A4{/GAG}A4|!
{/g}A3{/d}B1{/G}A2{/Gdc}d2|{/gfg}f3{/g}e1{/Gdc}d4|{/gef}e3f1 {/gf}g1e1 {/gcd}c1{/e}A1|{/Gdc}d4{/gdG}d3|]

